X:1
T:Savez-vous planter des choux ?
C:abc file by Bernard Loffet
L:1/8
Q:290
M:2/2
K:G
[D2G,2][D2G,2][B2G,2][B2G,2]|[A2D,2][B2G,2][G2G,2]G,2|[F2D,2][G2G,2][A2D,2][A2D,2]|[G2G,2][A2D,2][B2G,2][G2G,2]|[D2G,2][D2G,2][B2G,2][B2G,2]|[A2D,2][B2G,2][G2G,2]G,2| \
[F2D,2][G2G,2][A2D,2][c2D,2]|[B2G,2][A2D,2][G2G,2]G,2| \
K:C
Z:Created with TablEdit http://www.tabledit.com/ by Bernard Loffet
